CommonLib.Web/CommonLib.Web/wwwroot/icons/duotone/passport.svg

<svg xmlns="http://www.w3.org/2000/svg" viewBox="0 0 448 512"><defs><style>.fa-secondary{opacity:.4}</style></defs><path d="M224 64a128 128 0 1 0 128 128A128 128 0 0 0 224 64zm94.38 112h-39.09c-1.49-27-6.53-51.35-14.21-70.41a95.85 95.85 0 0 1 53.3 70.41zm-188.76 32h39.09c1.49 27 6.53 51.35 14.21 70.41a95.87 95.87 0 0 1-53.3-70.41zm39.09-32h-39.09a95.85 95.85 0 0 1 53.3-70.41C175.25 124.65 170.2 149 168.71 176zM224 286.69c-7.69-7.45-20.77-34.43-23.44-78.69h46.87c-2.66 44.27-15.74 71.24-23.43 78.69zM200.57 176c2.66-44.26 15.74-71.24 23.44-78.69 7.69 7.45 20.77 34.43 23.43 78.69zm64.51 102.41c7.68-19.06 12.72-43.41 14.21-70.41h39.09a95.85 95.85 0 0 1-53.3 70.41z" class="fa-secondary"/><path d="M224 286.69c7.69-7.45 20.77-34.42 23.43-78.69h-46.87c2.67 44.26 15.75 71.24 23.44 78.69zM129.62 208a95.87 95.87 0 0 0 53.3 70.41C175.24 259.35 170.2 235 168.71 208zm0-32h39.09c1.49-27 6.54-51.35 14.21-70.41a95.85 95.85 0 0 0-53.3 70.41zm135.46-70.41c7.68 19.06 12.72 43.41 14.21 70.41h39.09a95.85 95.85 0 0 0-53.3-70.41zM200.57 176h46.87c-2.66-44.26-15.74-71.24-23.43-78.69-7.7 7.45-20.78 34.43-23.44 78.69zM416 0H64A64 64 0 0 0 0 64v384a64 64 0 0 0 64 64h352a32 32 0 0 0 32-32V32a32 32 0 0 0-32-32zm-80 416H112a16 16 0 0 1 0-32h224a16 16 0 0 1 0 32zm-112-96a128 128 0 1 1 128-128 128 128 0 0 1-128 128zm41.08-41.59a95.85 95.85 0 0 0 53.3-70.41h-39.09c-1.49 27-6.53 51.35-14.21 70.41z" class="fa-primary"/></svg>

<svg xmlns="http://www.w3.org/2000/svg" viewBox="0 0 448 512"><!--! Font Awesome Pro 6.2.0 by @fontawesome - https://fontawesome.com License - https://fontawesome.com/license (Commercial License) Copyright 2022 Fonticons, Inc. --><defs><style>.fa-secondary{opacity:.4}</style></defs><path class="fa-primary" d="M265.1 105.6C272.8 124.6 277.8 149 279.3 176h39.13C313.1 144.8 292.8 118.9 265.1 105.6zM129.6 208c5.25 31.25 25.62 57.13 53.25 70.38C175.3 259.4 170.3 235 168.8 208H129.6zM384 0H64C28.65 0 0 28.65 0 64v384c0 35.35 28.65 64 64 64h320c35.2 0 64-28.8 64-64V64C448 28.8 419.2 0 384 0zM336 416h-224C103.3 416 96 408.8 96 400S103.3 384 112 384h224c8.75 0 16 7.25 16 16S344.8 416 336 416zM224 320c-70.75 0-128-57.25-128-128s57.25-128 128-128s128 57.25 128 128S294.8 320 224 320zM129.6 176h39.13c1.5-27 6.5-51.38 14.12-70.38C155.3 118.9 134.9 144.8 129.6 176zM265.1 278.4c27.62-13.25 48-39.13 53.25-70.38h-39.13C277.8 235 272.8 259.4 265.1 278.4zM224 286.8C231.8 279.3 244.8 252.3 247.4 208H200.5C203.3 252.3 216.3 279.3 224 286.8zM200.6 176h46.88C244.7 131.8 231.8 104.8 224 97.25C216.3 104.8 203.2 131.8 200.6 176z"/><path class="fa-secondary" d="M224 64C153.3 64 96 121.3 96 192s57.25 128 128 128s128-57.25 128-128S294.8 64 224 64zM318.4 176h-39.13c-1.5-27-6.5-51.38-14.12-70.38C292.8 118.9 313.1 144.8 318.4 176zM129.6 208h39.13c1.5 27 6.5 51.38 14.12 70.38C155.3 265.1 134.9 239.3 129.6 208zM168.8 176H129.6c5.25-31.25 25.62-57.13 53.25-70.38C175.3 124.6 170.3 149 168.8 176zM224 286.8C216.3 279.3 203.3 252.3 200.5 208h46.84C244.8 252.3 231.8 279.3 224 286.8zM200.6 176C203.2 131.8 216.3 104.8 224 97.25C231.8 104.8 244.7 131.8 247.5 176H200.6zM265.1 278.4C272.8 259.4 277.8 235 279.3 208h39.13C313.1 239.3 292.8 265.1 265.1 278.4z"/></svg>
